icon/pk/data-display.svg

<svg viewBox="0 0 48 48" fill="none" xmlns="http://www.w3.org/2000/svg" height="1em" width="1em">
  <path d="M22 8V20C22 22.2091 17.9706 24 13 24C8.02944 24 4 22.2091 4 20V8" stroke="black" stroke-width="4" stroke-linecap="round" stroke-linejoin="round"/>
  <path d="M22 14C22 16.2091 17.9706 18 13 18C8.02944 18 4 16.2091 4 14" stroke="black" stroke-width="4" stroke-linecap="round" stroke-linejoin="round"/>
  <path d="M22 8C22 10.2091 17.9706 12 13 12C8.02944 12 4 10.2091 4 8C4 5.79086 8.02944 4 13 4C17.9706 4 22 5.79086 22 8Z" fill="#2F88FF" stroke="black" stroke-width="4" stroke-linecap="round" stroke-linejoin="round"/>
  <path d="M32 6H38C40.2091 6 42 7.79086 42 10V16" stroke="black" stroke-width="4" stroke-linecap="round" stroke-linejoin="round"/>
  <path d="M16 42H10C7.79086 42 6 40.2091 6 38V32" stroke="black" stroke-width="4" stroke-linecap="round" stroke-linejoin="round"/>
  <path d="M35 38V44" stroke="black" stroke-width="4" stroke-linecap="round" stroke-linejoin="round"/>
  <path d="M41 44H35H29" stroke="black" stroke-width="4" stroke-linecap="round" stroke-linejoin="round"/>
  <path d="M44 38V26H26V38H44Z" fill="#2F88FF" stroke="black" stroke-width="4" stroke-linecap="round" stroke-linejoin="round"/>
</svg>

<svg width="48" height="48" fill="none" xmlns="http://www.w3.org/2000/svg"><path d="M22 8v12c0 2.21-4.03 4-9 4s-9-1.79-9-4V8" stroke="#000" stroke-width="4" stroke-linecap="round" stroke-linejoin="round"/><path d="M22 14c0 2.21-4.03 4-9 4s-9-1.79-9-4" stroke="#000" stroke-width="4" stroke-linecap="round" stroke-linejoin="round"/><path d="M22 8c0 2.21-4.03 4-9 4s-9-1.79-9-4 4.03-4 9-4 9 1.79 9 4Z" fill="#2F88FF" stroke="#000" stroke-width="4" stroke-linecap="round" stroke-linejoin="round"/><path d="M32 6h6a4 4 0 0 1 4 4v6M16 42h-6a4 4 0 0 1-4-4v-6M35 38v6M41 44H29" stroke="#000" stroke-width="4" stroke-linecap="round" stroke-linejoin="round"/><path d="M44 38V26H26v12h18Z" fill="#2F88FF" stroke="#000" stroke-width="4" stroke-linecap="round" stroke-linejoin="round"/></svg>
